src/components/content/Icon/functional/transforming-textiles.svg

<svg width="100" height="100" viewBox="0 0 100 100" fill="none" xmlns="http://www.w3.org/2000/svg">
<path d="M77.1999 42.4121C75.4499 38.3801 71.9259 35.1421 68.7079 32.5081C64.9719 29.4481 61.1459 27.3441 57.3359 26.2521C56.7639 26.0901 56.1559 26.3141 55.8239 26.8121C54.5539 28.7081 52.1719 29.8861 49.6059 29.8861C47.0399 29.8861 44.6579 28.7081 43.3879 26.8121C43.0539 26.3141 42.4459 26.0881 41.8739 26.2521C37.4279 27.5241 33.4439 30.4781 30.4699 32.9101C26.5379 36.1241 23.8899 39.3921 22.3759 42.8961C22.2939 43.0841 22.2319 43.3861 22.3899 43.7601C22.8019 44.7261 29.0679 52.6861 30.6839 53.2921C31.3459 53.5421 32.0999 53.3841 32.6179 52.8781L34.3199 51.1521V71.7701C34.3199 72.7781 35.1399 73.5981 36.1479 73.5981H63.8579C64.8659 73.5981 65.6859 72.7781 65.6859 71.7721V62.4461L69.8959 66.8141C70.0919 67.0181 70.3539 67.1201 70.6159 67.1201C70.8779 67.1201 71.1159 67.0281 71.3099 66.8401C71.4045 66.749 71.4803 66.6402 71.5329 66.5198C71.5854 66.3994 71.6137 66.2698 71.6161 66.1385C71.6186 66.0071 71.595 65.8766 71.5469 65.7544C71.4989 65.6321 71.4271 65.5206 71.3359 65.4261L65.2879 59.1521C65.1955 59.0563 65.085 58.9799 64.9627 58.9273C64.8405 58.8748 64.7089 58.8472 64.5759 58.8461C64.3119 58.8481 64.0479 58.9501 63.8579 59.1421L57.7219 65.3321C57.5353 65.5205 57.4312 65.7752 57.4323 66.0403C57.4334 66.3055 57.5397 66.5593 57.7279 66.7461C57.9163 66.9326 58.171 67.0368 58.4361 67.0356C58.7012 67.0345 58.9551 66.9282 59.1419 66.7401L63.6859 62.1561V71.6001H36.3179V48.7161C36.3179 48.3101 36.0719 47.9441 35.6979 47.7901C35.5143 47.7148 35.3126 47.6958 35.1182 47.7353C34.9238 47.7748 34.7455 47.8711 34.6059 48.0121L31.3059 51.3581C30.8999 51.0501 29.7579 49.9421 27.5859 47.3341C26.0599 45.5021 24.8599 43.9281 24.4039 43.2541C25.8179 40.2101 28.2219 37.3281 31.7339 34.4581C34.4599 32.2281 38.0659 29.5421 41.9939 28.3041C43.6779 30.5241 46.5479 31.8861 49.6019 31.8861C52.6559 31.8861 55.5279 30.5241 57.2119 28.3021C60.6179 29.3501 64.0559 31.2841 67.4359 34.0541C70.3399 36.4341 73.5039 39.3141 75.1519 42.7541C74.6919 43.3801 73.5499 44.7761 71.9559 46.5701C70.2399 48.5001 69.1839 49.5601 68.6219 50.0681L65.3099 47.1601C65.1656 47.033 64.9877 46.9503 64.7975 46.9219C64.6073 46.8935 64.413 46.9207 64.2379 47.0001C64.0628 47.0793 63.9142 47.2072 63.8099 47.3686C63.7057 47.5299 63.6501 47.718 63.6499 47.9101V56.1321C63.6499 56.6841 64.0979 57.1321 64.6499 57.1321C65.2019 57.1321 65.6499 56.6841 65.6499 56.1321V50.1201L67.9079 52.1041C68.0437 52.2235 68.2093 52.3039 68.3872 52.3367C68.565 52.3694 68.7484 52.3533 68.9179 52.2901C69.1739 52.1941 69.8559 51.9381 73.4139 47.9381C73.7639 47.5461 76.8359 44.0801 77.1819 43.2641C77.3359 42.8981 77.2719 42.5981 77.1919 42.4121H77.1999Z" fill="#0B301A"/>
</svg>

<svg xmlns="http://www.w3.org/2000/svg" width="100" height="100" fill="none" viewBox="0 0 100 100"><path fill="#0b301a" d="M77.2 42.412c-1.75-4.032-5.274-7.27-8.492-9.904-3.736-3.06-7.562-5.164-11.372-6.256a1.37 1.37 0 0 0-1.512.56c-1.27 1.896-3.652 3.074-6.218 3.074s-4.948-1.178-6.218-3.074a1.37 1.37 0 0 0-1.514-.56c-4.446 1.272-8.43 4.226-11.404 6.658-3.932 3.214-6.58 6.482-8.094 9.986-.082.188-.144.49.014.864.412.966 6.678 8.926 8.294 9.532.662.25 1.416.092 1.934-.414l1.702-1.726V71.77a1.83 1.83 0 0 0 1.828 1.828h27.71a1.83 1.83 0 0 0 1.828-1.826v-9.326l4.21 4.368a1 1 0 0 0 .72.306 1.001 1.001 0 0 0 .72-1.694l-6.048-6.274a1 1 0 0 0-.712-.306 1.02 1.02 0 0 0-.718.296l-6.136 6.19a1 1 0 0 0 1.42 1.408l4.544-4.584V71.6H36.318V48.716a1.002 1.002 0 0 0-1.2-.98c-.194.039-.373.135-.512.276l-3.3 3.346c-.406-.308-1.548-1.416-3.72-4.024-1.526-1.832-2.726-3.406-3.182-4.08 1.414-3.044 3.818-5.926 7.33-8.796 2.726-2.23 6.332-4.916 10.26-6.154 1.684 2.22 4.554 3.582 7.608 3.582s5.926-1.362 7.61-3.584c3.406 1.048 6.844 2.982 10.224 5.752 2.904 2.38 6.068 5.26 7.716 8.7-.46.626-1.602 2.022-3.196 3.816-1.716 1.93-2.772 2.99-3.334 3.498L65.31 47.16a.998.998 0 0 0-1.66.75v8.222a1 1 0 0 0 2 0V50.12l2.258 1.984a1 1 0 0 0 1.01.186c.256-.096.938-.352 4.496-4.352.35-.392 3.422-3.858 3.768-4.674.154-.366.09-.666.01-.852z"/></svg>
